X:1
C: F. A. G. Ouseley
M: none
L:1/2
%%staves [(1 2) (3 4)]
K:Eb
V:1 clef=treble
B2 | e c | A2 || F2 | B G | F F | E2 |]
V:2 clef=treble
G2 | G G | F2 || D2 | E E | E D | E2 |]
V:3 clef=bass octave=-1
B2 | c c | c2 || B2 | B B | c B/2 A/2 | G2 |]
V:4 clef=bass octave=-1
E2 | C E | F2 || B2 | G E | A, B, | E2 |]
